src/ui/secured.svg

<?xml version="1.0" encoding="UTF-8"?><svg xmlns="http://www.w3.org/2000/svg" viewBox="0 0 32 32"><defs><style>.uuid-15dfd033-648c-4cd0-9a6c-821d77a8fc56{fill:none;}.uuid-15dfd033-648c-4cd0-9a6c-821d77a8fc56,.uuid-e3615235-af55-4b5b-80f8-ce703a05c32d{stroke-width:0px;}.uuid-e3615235-af55-4b5b-80f8-ce703a05c32d{fill:#151515;}</style></defs><g id="uuid-21deec58-6f6b-4690-8184-a0c2773a9344"><rect class="uuid-15dfd033-648c-4cd0-9a6c-821d77a8fc56" width="32" height="32"/></g><g id="uuid-e6c85fed-0046-4b9a-9e8d-cce270d0b303"><path class="uuid-e3615235-af55-4b5b-80f8-ce703a05c32d" d="M29.208,2.792L16.208.022c-.1367-.0293-.2793-.0293-.416,0L2.792,2.792c-.4619.0981-.792.5059-.792.978v14.23c0,7.7197,6.2803,14,14,14s14-6.2803,14-14V3.77c0-.4722-.3301-.8799-.792-.978ZM28,18c0,6.6167-5.3828,12-12,12s-12-5.3833-12-12V4.5796l12-2.5571,12,2.5571v13.4204Z"/><path class="uuid-e3615235-af55-4b5b-80f8-ce703a05c32d" d="M9.707,15.293c-.3906-.3906-1.0234-.3906-1.4141,0s-.3906,1.0234,0,1.4141l4.6465,4.6465c.292.2925.6768.4385,1.0605.4385s.7686-.146,1.0605-.4385l8.6465-8.6465c.3906-.3906.3906-1.0234,0-1.4141s-1.0234-.3906-1.4141,0l-8.293,8.293-4.293-4.293Z"/></g></svg>

<svg xmlns="http://www.w3.org/2000/svg" viewBox="0 0 32 32">
  <defs>
    <style>
      .uuid-e3615235-af55-4b5b-80f8-ce703a05c32d{stroke-width:0;fill:#151515}
    </style>
  </defs>
  <path d="M0 0h32v32H0z" id="uuid-21deec58-6f6b-4690-8184-a0c2773a9344" stroke-width="0" fill="none"/>
  <g id="uuid-e6c85fed-0046-4b9a-9e8d-cce270d0b303">
    <path class="uuid-e3615235-af55-4b5b-80f8-ce703a05c32d" d="m29.208 2.792-13-2.77a.995.995 0 0 0-.416 0l-13 2.77A1 1 0 0 0 2 3.77V18c0 7.72 6.28 14 14 14s14-6.28 14-14V3.77a1 1 0 0 0-.792-.978ZM28 18c0 6.617-5.383 12-12 12S4 24.617 4 18V4.58l12-2.558L28 4.58V18Z"/>
    <path class="uuid-e3615235-af55-4b5b-80f8-ce703a05c32d" d="M9.707 15.293a1 1 0 1 0-1.414 1.414l4.646 4.647c.292.292.677.438 1.06.438s.77-.146 1.061-.438l8.647-8.647a1 1 0 1 0-1.414-1.414L14 19.586l-4.293-4.293Z"/>
  </g>
</svg>
